libs/icons/src/svg/loop.svg

<svg width="16" height="16" viewBox="0 0 16 16" fill="none" xmlns="http://www.w3.org/2000/svg">
<g clip-path="url(#clip0_3_3715)">
<path d="M15.1333 3.53333C15.2667 3.66666 15.3333 3.8 15.3333 4C15.3333 4.2 15.2667 4.33333 15.1333 4.46666L12.4667 7.13333C12.2 7.4 11.8 7.4 11.5333 7.13333C11.2667 6.86666 11.2667 6.46666 11.5333 6.2L13.0667 4.66666H2.00001V8C2.00001 8.4 1.73334 8.66666 1.33334 8.66666C0.933338 8.66666 0.666672 8.4 0.666672 8V4C0.666672 3.6 0.933338 3.33333 1.33334 3.33333H13.0667L11.5333 1.8C11.2667 1.53333 11.2667 1.13333 11.5333 0.866664C11.8 0.599997 12.2 0.599997 12.4667 0.866664L15.1333 3.53333Z" fill="#202327"/>
<path d="M14 8C14 7.6 14.2667 7.33333 14.6667 7.33333C15.0667 7.33333 15.3333 7.6 15.3333 8V12C15.3333 12.4 15.0667 12.6667 14.6667 12.6667H2.93334L4.46667 14.2C4.73334 14.4667 4.73334 14.8667 4.46667 15.1333C4.2 15.4 3.80001 15.4 3.53334 15.1333L0.866672 12.4667C0.800005 12.4 0.733338 12.3333 0.733338 12.2667C0.666672 12.2 0.666672 12.0667 0.666672 12C0.666672 11.9333 0.666672 11.8 0.733338 11.7333C0.733338 11.6667 0.800005 11.6 0.866672 11.5333L3.53334 8.86666C3.80001 8.6 4.2 8.6 4.46667 8.86666C4.73334 9.13333 4.73334 9.53333 4.46667 9.8L2.93334 11.3333H14V8Z" fill="#202327"/>
</g>
<defs>
<clipPath id="clip0_3_3715">
<rect width="16" height="16" fill="white"/>
</clipPath>
</defs>
</svg>

<svg xmlns="http://www.w3.org/2000/svg" viewBox="0 0 16 16" class="sageicon"><path d="M15.133 3.533c.134.134.2.267.2.467s-.066.333-.2.467l-2.666 2.666a.645.645 0 0 1-.934 0 .645.645 0 0 1 0-.933l1.534-1.533H2V8c0 .4-.267.667-.667.667S.667 8.4.667 8V4c0-.4.266-.667.666-.667h11.734L11.533 1.8a.645.645 0 0 1 0-.933.645.645 0 0 1 .934 0l2.666 2.666ZM14 8c0-.4.267-.667.667-.667s.666.267.666.667v4c0 .4-.266.667-.666.667H2.933L4.467 14.2a.644.644 0 0 1 0 .933.644.644 0 0 1-.934 0L.867 12.467c-.067-.067-.134-.134-.134-.2-.066-.067-.066-.2-.066-.267s0-.2.066-.267c0-.066.067-.133.134-.2l2.666-2.666a.644.644 0 0 1 .934 0 .644.644 0 0 1 0 .933l-1.534 1.533H14V8Z"/></svg>
